X:80
T:Hello, Somebody
M:C|
L:1/8
Q:1/4=3D110
K:G
B2BB GGGG|B2B2 G4|B2B2 G2GG|B2 B4 B2|
c2c2 A2AA|F2F2 D4|G2G2 D2DD|G2 G6||
